X: 3130
T: MISS MAULE OF PANMURE
Q: "Reel."
R: Reel.
%R: reel
B: James Kerr "Merry Melodies" v.3 p.16 #130
Z: 2016 John Chambers <jc:trillian.mit.edu>
Q:"Reel."
M: C
L: 1/8
K: C
uc |\
(A/B/c) (d/c/B/A/) GEEc | GcEc GEEc |\
(A/B/c) (d/c/B/A/) GEEc | GEcE EDD :|
|: f |\
(e/f/g) (gf) ecce | (A/B/c) (Gc) EcGc |\
[1 (e/f/g) (gf) ecce | dBcE EDD :|\
[2 egfd ecdB | cBcE EDD |]

%%sep 1 1 500
%%sep 1 1 500

